Papirus/64x64/mimetypes/text-x-systemd-unit.svg

<svg width="64" xmlns="http://www.w3.org/2000/svg" version="1.1" height="64">
 <path style="opacity:.2" d="m14.5 8c-1.385 0-2.5 1.115-2.5 2.5v45c0 1.385 1.115 2.5 2.5 2.5h35c1.385 0 2.5-1.115 2.5-2.5v-32.5l-15-15z"/>
 <path style="fill:#e4e4e4" d="m14.5 7c-1.385 0-2.5 1.115-2.5 2.5v45c0 1.385 1.115 2.5 2.5 2.5h35c1.385 0 2.5-1.115 2.5-2.5v-32.5l-12-3-3-12z"/>
 <path style="opacity:.2" d="m52 23-15-15v12.5c0 1.385 1.115 2.5 2.5 2.5z"/>
 <path style="fill:#fafafa" d="m52 22-15-15v12.5c0 1.385 1.115 2.5 2.5 2.5z"/>
 <path style="opacity:.2;fill:#ffffff" d="m14.5 7c-1.385 0-2.5 1.115-2.5 2.5v1c0-1.385 1.115-2.5 2.5-2.5h22.5v-1h-22.5z"/>
 <path style="fill:#3f3f3f" d="m21 28h-6v19h6v-3h-3v-13h3z"/>
 <circle cy="38" cx="26" r="4" style="fill:#05a087"/>
 <path style="fill:#05a087" d="m41 34v8l-7-4z"/>
 <path style="fill:#3f3f3f" d="m43 28h6v19h-6v-3h3v-13h-3z"/>
</svg>

<svg xmlns="http://www.w3.org/2000/svg" width="64" height="64" version="1.1">
 <path style="opacity:0.2" d="m14.5 8c-1.385 0-2.5 1.115-2.5 2.5v45c0 1.385 1.115 2.5 2.5 2.5h35c1.385 0 2.5-1.115 2.5-2.5v-32.5l-15-15z"/>
 <path style="fill:#e4e4e4" d="m14.5 7c-1.385 0-2.5 1.115-2.5 2.5v45c0 1.385 1.115 2.5 2.5 2.5h35c1.385 0 2.5-1.115 2.5-2.5v-32.5l-12-3-3-12z"/>
 <path style="opacity:0.2" d="m52 23-15-15v12.5c0 1.385 1.115 2.5 2.5 2.5z"/>
 <path style="fill:#fafafa" d="m52 22-15-15v12.5c0 1.385 1.115 2.5 2.5 2.5z"/>
 <path style="opacity:0.2;fill:#ffffff" d="m14.5 7c-1.385 0-2.5 1.115-2.5 2.5v1c0-1.385 1.115-2.5 2.5-2.5h22.5v-1h-22.5z"/>
 <circle style="fill:#05a087" cx="27" cy="38" r="5"/>
 <path style="fill:#05a087" d="M 42,32 V 44 L 33,38 Z"/>
 <path style="fill:#4f4f4f" d="M 43,28 H 49 V 47 H 43 V 44 H 46 V 31 H 43 Z M 21,28 H 15 V 47 H 21 V 44 H 18 V 31 H 21 Z"/>
</svg>
